img/mail.svg

<svg xmlns="http://www.w3.org/2000/svg" xmlns:xlink="http://www.w3.org/1999/xlink" preserveAspectRatio="xMidYMid" width="25.5" height="19.5" viewBox="0 0 25.5 19.5">
  <defs>
    <style>
      .cls-1 {
        fill: #182a33;
        fill-rule: evenodd;
      }
    </style>
  </defs>
  <path d="M-0.000,-0.000 L-0.000,19.500 L25.500,19.500 L25.500,-0.000 L-0.000,-0.000 ZM13.593,11.010 C13.403,11.204 13.110,11.315 12.789,11.315 C12.466,11.315 12.169,11.201 11.977,11.005 L3.018,1.803 L22.617,1.803 L13.593,11.010 ZM8.224,9.718 L1.779,16.397 L1.779,3.098 L8.224,9.718 ZM9.474,11.002 L10.712,12.273 C11.238,12.810 11.995,13.118 12.789,13.118 C13.581,13.118 14.335,12.813 14.856,12.281 L16.073,11.038 L22.488,17.697 L3.014,17.697 L9.474,11.002 ZM17.327,9.759 L23.721,3.236 L23.721,16.395 L17.327,9.759 Z" class="cls-1"/>
</svg>

<svg xmlns="http://www.w3.org/2000/svg" width="25.5" height="19.5" preserveAspectRatio="xMidYMid"><defs><style>.cls-1 { fill: #182a33; fill-rule: evenodd; }</style></defs><path d="M0 0v19.5h25.5V0H0zm13.6 11c-.2.2-.5.3-.8.3-.33 0-.63-.1-.82-.3L3.02 1.8h19.6L13.6 11zM8.2 9.73L1.78 16.4V3.1l6.44 6.62zM9.47 11l1.24 1.27c.54.54 1.3.85 2.1.85.78 0 1.54-.3 2.06-.84l1.2-1.24 6.43 6.66H3L9.48 11zm7.86-1.24l6.4-6.52V16.4l-6.4-6.64z" class="cls-1"/></svg>
